public/icons/arc-arrow-down.svg

<svg width="50" height="62" viewBox="0 0 50 62" fill="none" xmlns="http://www.w3.org/2000/svg">
<path d="M9.99655 61.5713C9.68106 62.0246 9.05782 62.1363 8.60452 61.8208L1.21758 56.6795C0.764282 56.364 0.652573 55.7407 0.968067 55.2874C1.28357 54.8341 1.9068 54.7224 2.3601 55.0379L8.92627 59.608L13.4963 53.0418C13.8118 52.5885 14.4351 52.4768 14.8884 52.7923C15.3416 53.1078 15.4534 53.731 15.1379 54.1843L9.99655 61.5713ZM49.3158 1.99015C48.998 2.03509 48.6744 2.08499 48.3453 2.13999L48.0156 0.167342C48.361 0.109636 48.7011 0.0571723 49.0358 0.00985146L49.3158 1.99015ZM46.3866 2.5151C45.7529 2.65151 45.1042 2.80544 44.4428 2.97757L43.939 1.04204C44.6277 0.862833 45.304 0.702331 45.9657 0.559889L46.3866 2.5151ZM42.5249 3.5182C41.9 3.70784 41.2667 3.91321 40.6268 4.13479L39.9724 2.24489C40.6368 2.01482 41.2947 1.80149 41.9441 1.60439L42.5249 3.5182ZM38.7522 4.82421C38.1398 5.06271 37.5233 5.31596 36.9042 5.58439L36.1086 3.74948C36.751 3.47091 37.3908 3.20808 38.0264 2.96055L38.7522 4.82421ZM35.0862 6.41399C34.4915 6.69907 33.8961 6.99834 33.3011 7.31213L32.3681 5.5431C32.986 5.2172 33.6043 4.90648 34.2216 4.61054L35.0862 6.41399ZM31.5522 8.27828C30.9812 8.60844 30.4119 8.95238 29.8456 9.31042L28.7768 7.61993C29.3658 7.24754 29.9577 6.88996 30.5512 6.54685L31.5522 8.27828ZM28.1822 10.4096C27.639 10.7846 27.0998 11.1731 26.5656 11.5755L25.3622 9.97809C25.9188 9.55877 26.4805 9.15408 27.0459 8.76371L28.1822 10.4096ZM24.9997 12.8078C24.4898 13.2269 23.9858 13.6595 23.4886 14.1057L22.1527 12.6173C22.6718 12.1514 23.1978 11.7 23.7297 11.2628L24.9997 12.8078ZM22.0362 15.4685C21.5651 15.9307 21.1015 16.4061 20.6463 16.8951L19.1824 15.5324C19.6585 15.021 20.1432 14.5239 20.6355 14.0409L22.0362 15.4685ZM19.3237 18.3833C18.8983 18.8848 18.4817 19.3994 18.0748 19.9273L16.4908 18.7063C16.917 18.1534 17.3532 17.6146 17.7985 17.0896L19.3237 18.3833ZM16.8996 21.5286C16.5232 22.0678 16.1568 22.6197 15.8011 23.1848L14.1086 22.1192C14.4813 21.5271 14.8653 20.9487 15.2597 20.3837L16.8996 21.5286ZM14.7814 24.8934C14.4579 25.4663 14.1451 26.0517 13.8439 26.6497L12.0577 25.7501C12.3732 25.1235 12.701 24.5102 13.04 23.9098L14.7814 24.8934ZM12.9938 28.4412C12.7267 29.0401 12.4709 29.651 12.227 30.274L10.3646 29.545C10.6198 28.893 10.8876 28.2536 11.1673 27.6265L12.9938 28.4412ZM11.5432 32.1461C11.332 32.7683 11.1323 33.4019 10.9448 34.0472L9.02423 33.4893C9.21997 32.8154 9.42859 32.1534 9.64947 31.503L11.5432 32.1461ZM10.4328 35.9646C10.2769 36.6029 10.1328 37.252 10.0008 37.912L8.03963 37.5199C8.17708 36.8325 8.32731 36.156 8.48982 35.4903L10.4328 35.9646ZM9.64861 39.8831C9.54673 40.5286 9.45623 41.184 9.37755 41.8496L7.39138 41.6148C7.47308 40.9237 7.56712 40.2425 7.67307 39.5713L9.64861 39.8831ZM9.18027 43.8414C9.1276 44.4979 9.08617 45.1638 9.05639 45.8392L7.05833 45.7511C7.08916 45.0519 7.13207 44.3621 7.18668 43.6814L9.18027 43.8414ZM9.00291 47.8311C8.99636 48.4951 9.00082 49.168 9.01662 49.8498L7.01715 49.8961C7.00085 49.1925 6.99624 48.4976 7.00301 47.8114L9.00291 47.8311ZM9.09368 51.8354C9.12954 52.497 9.17587 53.1667 9.23296 53.8446L7.24002 54.0125C7.18127 53.315 7.13356 52.6254 7.09661 51.9437L9.09368 51.8354ZM9.42914 55.835C9.50326 56.4925 9.5873 57.1575 9.68152 57.83L7.70087 58.1075C7.60418 57.4175 7.51788 56.7346 7.44173 56.059L9.42914 55.835ZM9.98582 59.815C10.0414 60.1494 10.0995 60.4856 10.1601 60.8236L8.19147 61.1764C8.12942 60.8303 8.06991 60.4858 8.01292 60.1431L9.98582 59.815Z" fill="#0F0F0F"/>
<path d="M9.99655 61.5713C9.68106 62.0246 9.05782 62.1363 8.60452 61.8208L1.21758 56.6795C0.764282 56.364 0.652573 55.7407 0.968067 55.2874C1.28357 54.8341 1.9068 54.7224 2.3601 55.0379L8.92627 59.608L13.4963 53.0418C13.8118 52.5885 14.4351 52.4768 14.8884 52.7923C15.3416 53.1078 15.4534 53.731 15.1379 54.1843L9.99655 61.5713ZM49.3158 1.99015C48.998 2.03509 48.6744 2.08499 48.3453 2.13999L48.0156 0.167342C48.361 0.109636 48.7011 0.0571723 49.0358 0.00985146L49.3158 1.99015ZM46.3866 2.5151C45.7529 2.65151 45.1042 2.80544 44.4428 2.97757L43.939 1.04204C44.6277 0.862833 45.304 0.702331 45.9657 0.559889L46.3866 2.5151ZM42.5249 3.5182C41.9 3.70784 41.2667 3.91321 40.6268 4.13479L39.9724 2.24489C40.6368 2.01482 41.2947 1.80149 41.9441 1.60439L42.5249 3.5182ZM38.7522 4.82421C38.1398 5.06271 37.5233 5.31596 36.9042 5.58439L36.1086 3.74948C36.751 3.47091 37.3908 3.20808 38.0264 2.96055L38.7522 4.82421ZM35.0862 6.41399C34.4915 6.69907 33.8961 6.99834 33.3011 7.31213L32.3681 5.5431C32.986 5.2172 33.6043 4.90648 34.2216 4.61054L35.0862 6.41399ZM31.5522 8.27828C30.9812 8.60844 30.4119 8.95238 29.8456 9.31042L28.7768 7.61993C29.3658 7.24754 29.9577 6.88996 30.5512 6.54685L31.5522 8.27828ZM28.1822 10.4096C27.639 10.7846 27.0998 11.1731 26.5656 11.5755L25.3622 9.97809C25.9188 9.55877 26.4805 9.15408 27.0459 8.76371L28.1822 10.4096ZM24.9997 12.8078C24.4898 13.2269 23.9858 13.6595 23.4886 14.1057L22.1527 12.6173C22.6718 12.1514 23.1978 11.7 23.7297 11.2628L24.9997 12.8078ZM22.0362 15.4685C21.5651 15.9307 21.1015 16.4061 20.6463 16.8951L19.1824 15.5324C19.6585 15.021 20.1432 14.5239 20.6355 14.0409L22.0362 15.4685ZM19.3237 18.3833C18.8983 18.8848 18.4817 19.3994 18.0748 19.9273L16.4908 18.7063C16.917 18.1534 17.3532 17.6146 17.7985 17.0896L19.3237 18.3833ZM16.8996 21.5286C16.5232 22.0678 16.1568 22.6197 15.8011 23.1848L14.1086 22.1192C14.4813 21.5271 14.8653 20.9487 15.2597 20.3837L16.8996 21.5286ZM14.7814 24.8934C14.4579 25.4663 14.1451 26.0517 13.8439 26.6497L12.0577 25.7501C12.3732 25.1235 12.701 24.5102 13.04 23.9098L14.7814 24.8934ZM12.9938 28.4412C12.7267 29.0401 12.4709 29.651 12.227 30.274L10.3646 29.545C10.6198 28.893 10.8876 28.2536 11.1673 27.6265L12.9938 28.4412ZM11.5432 32.1461C11.332 32.7683 11.1323 33.4019 10.9448 34.0472L9.02423 33.4893C9.21997 32.8154 9.42859 32.1534 9.64947 31.503L11.5432 32.1461ZM10.4328 35.9646C10.2769 36.6029 10.1328 37.252 10.0008 37.912L8.03963 37.5199C8.17708 36.8325 8.32731 36.156 8.48982 35.4903L10.4328 35.9646ZM9.64861 39.8831C9.54673 40.5286 9.45623 41.184 9.37755 41.8496L7.39138 41.6148C7.47308 40.9237 7.56712 40.2425 7.67307 39.5713L9.64861 39.8831ZM9.18027 43.8414C9.1276 44.4979 9.08617 45.1638 9.05639 45.8392L7.05833 45.7511C7.08916 45.0519 7.13207 44.3621 7.18668 43.6814L9.18027 43.8414ZM9.00291 47.8311C8.99636 48.4951 9.00082 49.168 9.01662 49.8498L7.01715 49.8961C7.00085 49.1925 6.99624 48.4976 7.00301 47.8114L9.00291 47.8311ZM9.09368 51.8354C9.12954 52.497 9.17587 53.1667 9.23296 53.8446L7.24002 54.0125C7.18127 53.315 7.13356 52.6254 7.09661 51.9437L9.09368 51.8354ZM9.42914 55.835C9.50326 56.4925 9.5873 57.1575 9.68152 57.83L7.70087 58.1075C7.60418 57.4175 7.51788 56.7346 7.44173 56.059L9.42914 55.835ZM9.98582 59.815C10.0414 60.1494 10.0995 60.4856 10.1601 60.8236L8.19147 61.1764C8.12942 60.8303 8.06991 60.4858 8.01292 60.1431L9.98582 59.815Z" fill="black" fill-opacity="0.2"/>
</svg>

<svg width="50" height="62" fill="none" xmlns="http://www.w3.org/2000/svg"><path d="M9.997 61.571a1 1 0 0 1-1.392.25l-7.387-5.142a1 1 0 0 1 1.142-1.641l6.566 4.57 4.57-6.566a1 1 0 0 1 1.642 1.142l-5.141 7.387Zm39.319-59.58c-.318.044-.642.094-.97.149l-.33-1.973c.345-.057.685-.11 1.02-.157l.28 1.98Zm-2.93.524c-.633.137-1.282.29-1.943.463l-.504-1.936c.689-.18 1.365-.34 2.027-.482l.42 1.955Zm-3.861 1.003c-.625.19-1.258.395-1.898.617l-.655-1.89c.665-.23 1.323-.444 1.972-.64l.58 1.913Zm-3.773 1.306c-.612.239-1.229.492-1.848.76L36.11 3.75a54.884 54.884 0 0 1 1.917-.788l.726 1.863Zm-3.666 1.59c-.594.285-1.19.584-1.785.898l-.933-1.769a54.169 54.169 0 0 1 1.854-.932l.864 1.803Zm-3.534 1.864c-.57.33-1.14.674-1.706 1.032l-1.07-1.69c.59-.372 1.182-.73 1.775-1.073l1.001 1.731Zm-3.37 2.132a48.18 48.18 0 0 0-1.616 1.165l-1.204-1.597c.557-.42 1.119-.824 1.684-1.214l1.136 1.646ZM25 12.808c-.51.419-1.014.851-1.511 1.298l-1.336-1.489c.519-.466 1.045-.917 1.577-1.354L25 12.808Zm-2.964 2.66a43.95 43.95 0 0 0-1.39 1.427l-1.464-1.363c.477-.511.961-1.008 1.454-1.491l1.4 1.428Zm-2.712 2.915a42.43 42.43 0 0 0-1.25 1.544l-1.583-1.22c.426-.554.862-1.092 1.308-1.617l1.525 1.293ZM16.9 21.53c-.377.539-.743 1.09-1.099 1.656l-1.692-1.066a43.73 43.73 0 0 1 1.15-1.735l1.64 1.145Zm-2.119 3.364a41.957 41.957 0 0 0-.937 1.757l-1.786-.9c.315-.627.643-1.24.982-1.84l1.741.983Zm-1.787 3.548c-.267.6-.523 1.21-.767 1.833l-1.862-.729a44.76 44.76 0 0 1 .802-1.919l1.827.815Zm-1.45 3.705c-.212.622-.412 1.256-.6 1.901l-1.92-.558c.196-.674.405-1.336.625-1.986l1.894.643Zm-1.111 3.819c-.156.638-.3 1.287-.432 1.947L8.04 37.52c.137-.688.287-1.364.45-2.03l1.943.475Zm-.784 3.918c-.102.646-.193 1.301-.271 1.967l-1.987-.235c.082-.691.176-1.373.282-2.044l1.976.312Zm-.469 3.958a55.612 55.612 0 0 0-.124 1.998l-1.998-.088c.031-.7.074-1.389.129-2.07l1.993.16Zm-.177 3.99c-.007.664-.002 1.337.014 2.019l-2 .046a63.123 63.123 0 0 1-.014-2.085l2 .02Zm.09 4.004c.037.662.083 1.332.14 2.01l-1.993.168a69.403 69.403 0 0 1-.143-2.07l1.997-.108Zm.336 4c.074.657.158 1.322.253 1.995l-1.981.278a76.53 76.53 0 0 1-.26-2.049l1.988-.224Zm.557 3.98c.055.334.114.67.174 1.009l-1.969.352c-.062-.346-.121-.69-.178-1.033l1.973-.328Z" fill="#0F0F0F"/><path d="M9.997 61.571a1 1 0 0 1-1.392.25l-7.387-5.142a1 1 0 0 1 1.142-1.641l6.566 4.57 4.57-6.566a1 1 0 0 1 1.642 1.142l-5.141 7.387Zm39.319-59.58c-.318.044-.642.094-.97.149l-.33-1.973c.345-.057.685-.11 1.02-.157l.28 1.98Zm-2.93.524c-.633.137-1.282.29-1.943.463l-.504-1.936c.689-.18 1.365-.34 2.027-.482l.42 1.955Zm-3.861 1.003c-.625.19-1.258.395-1.898.617l-.655-1.89c.665-.23 1.323-.444 1.972-.64l.58 1.913Zm-3.773 1.306c-.612.239-1.229.492-1.848.76L36.11 3.75a54.884 54.884 0 0 1 1.917-.788l.726 1.863Zm-3.666 1.59c-.594.285-1.19.584-1.785.898l-.933-1.769a54.169 54.169 0 0 1 1.854-.932l.864 1.803Zm-3.534 1.864c-.57.33-1.14.674-1.706 1.032l-1.07-1.69c.59-.372 1.182-.73 1.775-1.073l1.001 1.731Zm-3.37 2.132a48.18 48.18 0 0 0-1.616 1.165l-1.204-1.597c.557-.42 1.119-.824 1.684-1.214l1.136 1.646ZM25 12.808c-.51.419-1.014.851-1.511 1.298l-1.336-1.489c.519-.466 1.045-.917 1.577-1.354L25 12.808Zm-2.964 2.66a43.95 43.95 0 0 0-1.39 1.427l-1.464-1.363c.477-.511.961-1.008 1.454-1.491l1.4 1.428Zm-2.712 2.915a42.43 42.43 0 0 0-1.25 1.544l-1.583-1.22c.426-.554.862-1.092 1.308-1.617l1.525 1.293ZM16.9 21.53c-.377.539-.743 1.09-1.099 1.656l-1.692-1.066a43.73 43.73 0 0 1 1.15-1.735l1.64 1.145Zm-2.119 3.364a41.957 41.957 0 0 0-.937 1.757l-1.786-.9c.315-.627.643-1.24.982-1.84l1.741.983Zm-1.787 3.548c-.267.6-.523 1.21-.767 1.833l-1.862-.729a44.76 44.76 0 0 1 .802-1.919l1.827.815Zm-1.45 3.705c-.212.622-.412 1.256-.6 1.901l-1.92-.558c.196-.674.405-1.336.625-1.986l1.894.643Zm-1.111 3.819c-.156.638-.3 1.287-.432 1.947L8.04 37.52c.137-.688.287-1.364.45-2.03l1.943.475Zm-.784 3.918c-.102.646-.193 1.301-.271 1.967l-1.987-.235c.082-.691.176-1.373.282-2.044l1.976.312Zm-.469 3.958a55.612 55.612 0 0 0-.124 1.998l-1.998-.088c.031-.7.074-1.389.129-2.07l1.993.16Zm-.177 3.99c-.007.664-.002 1.337.014 2.019l-2 .046a63.123 63.123 0 0 1-.014-2.085l2 .02Zm.09 4.004c.037.662.083 1.332.14 2.01l-1.993.168a69.403 69.403 0 0 1-.143-2.07l1.997-.108Zm.336 4c.074.657.158 1.322.253 1.995l-1.981.278a76.53 76.53 0 0 1-.26-2.049l1.988-.224Zm.557 3.98c.055.334.114.67.174 1.009l-1.969.352c-.062-.346-.121-.69-.178-1.033l1.973-.328Z" fill="#000" fill-opacity=".2"/></svg>
